X: 121
T: Old Copperplate
R:reel
M:4/4
L:1/8
K:Ador
"Am"A2 EA cA ~A2|aged cAFA|"G"G2 DG BG ~G2|gedc BGGB|!
"Am"A2 EA cA ~A2|aged cAAG|ABcd efge| aged cAA2:|!
|:"Am"ageg ~a3b|aged cA~A2|"Em"gfef g3a|"G"gedc BG ~G2|!
"Am"ageg a3b|aged cAAG|ABcd efge| aged cA~A2:|


